X:4112
T:Devil In The Bush,The. HSJJ.122
M:4/4
L:1/8
Q:200
S:HSJ Jackson,Wyresdale,Lancs.1823
R:Reel/Rant
O:England
A:Lancashire
H:1823
Z:vmp.Chris Partington.
K:G
gfgd|BcdB|gfgB cAAf|gfgd BcdB|ceAc BGG2:|!
|:BGcA dBec|BGcA|FAAB|(3Bcd (3cde (3def gB|cAdc|BGG2:|]
